localPackages/DesignSystem/Sources/DesignSystem/Resources/Assets.xcassets/IconSet/ic-list-numbers.imageset/ic-list-numbers.svg

<svg width="24" height="24" viewBox="0 0 24 24" fill="none" xmlns="http://www.w3.org/2000/svg">
<g id="ic-list-numbers">
<path id="Icon" fill-rule="evenodd" clip-rule="evenodd" d="M1.53942 5.25C1.53942 4.83579 1.87521 4.5 2.28942 4.5H3.78626C3.98517 4.5 4.17594 4.57902 4.31659 4.71967C4.45724 4.86032 4.53626 5.05109 4.53626 5.25L4.53626 9.75H5.2831C5.69731 9.75 6.0331 10.0858 6.0331 10.5C6.0331 10.9142 5.69731 11.25 5.2831 11.25H3.78626H2.28942C1.87521 11.25 1.53942 10.9142 1.53942 10.5C1.53942 10.0858 1.87521 9.75 2.28942 9.75H3.03626L3.03626 6L2.28942 6C1.87521 6 1.53942 5.66421 1.53942 5.25ZM8.27519 5.25C8.27519 4.83579 8.61098 4.5 9.02519 4.5H20.2515C20.6657 4.5 21.0015 4.83579 21.0015 5.25C21.0015 5.66421 20.6657 6 20.2515 6L9.02519 6C8.61098 6 8.27519 5.66421 8.27519 5.25ZM20.2515 12.75H9.02519C8.61098 12.75 8.27519 12.4142 8.27519 12C8.27519 11.5858 8.61098 11.25 9.02519 11.25H20.2515C20.6657 11.25 21.0015 11.5858 21.0015 12C21.0015 12.4142 20.6657 12.75 20.2515 12.75ZM9.02519 18C8.61098 18 8.27519 18.3358 8.27519 18.75C8.27519 19.1642 8.61098 19.5 9.02519 19.5L20.2515 19.5C20.6657 19.5 21.0015 19.1642 21.0015 18.75C21.0015 18.3358 20.6657 18 20.2515 18L9.02519 18ZM3.06208 14.7949C3.18337 14.4303 3.6426 14.3235 3.91162 14.5931C4.09725 14.7791 4.1138 15.076 3.94958 15.2817L3.94252 15.2905L3.93573 15.2996L1.69029 18.2932C1.51983 18.5205 1.4924 18.8245 1.61944 19.0786C1.74648 19.3327 2.00618 19.4932 2.29027 19.4932H5.28394C5.69815 19.4932 6.03394 19.1574 6.03394 18.7432C6.03394 18.329 5.69815 17.9932 5.28394 17.9932H3.79035L5.12967 16.2076C5.76147 15.4062 5.6953 14.257 4.9734 13.5335C3.91411 12.472 2.11152 12.9002 1.63876 14.3215L1.53683 14.6279C1.40609 15.021 1.61873 15.4456 2.01177 15.5763C2.40481 15.707 2.82942 15.4944 2.96016 15.1014L3.06208 14.7949Z" fill="#0F0F0F"/>
</g>
</svg>

<svg xmlns="http://www.w3.org/2000/svg" width="24" height="24" viewBox="0 0 24 24">
  <g class="ic-list-numbers">
    <path fill-rule="evenodd" d="M1.541 5.25a.75.75 0 0 1 .75-.75h1.497a.75.75 0 0 1 .75.75v4.5h.747a.75.75 0 0 1 0 1.5H2.29a.75.75 0 0 1 0-1.5h.747V6H2.29a.75.75 0 0 1-.75-.75Zm6.736 0a.75.75 0 0 1 .75-.75h11.226a.75.75 0 0 1 0 1.5H9.027a.75.75 0 0 1-.75-.75Zm11.976 7.5H9.027a.75.75 0 0 1 0-1.5h11.226a.75.75 0 0 1 0 1.5ZM9.027 18a.75.75 0 0 0 0 1.5h11.226a.75.75 0 0 0 0-1.5H9.027Zm-5.963-3.205a.512.512 0 0 1 .85-.202.518.518 0 0 1 .037.689l-.007.008-.007.01-2.245 2.993a.75.75 0 0 0 .6 1.2h2.994a.75.75 0 0 0 0-1.5H3.792l1.34-1.785a2.018 2.018 0 0 0-.157-2.674c-1.06-1.062-2.862-.634-3.335.787l-.101.307a.75.75 0 1 0 1.423.473l.102-.306Z" class="Icon"/>
  </g>
</svg>
